X:1
T:Viva il vino spumeggiante
T:O du eselhafter Peierl KV 560
T:W.A. Mozart
%%score 1 2 3 4
L:1/8
M:4/4
K:F
V:1 treble nm="Soprano" snm="S."
V:2 treble nm="Alto" snm="A."
V:3 treble-8 nm="Tenor" snm="T."
V:4 bass nm="Bass" snm="B."
V:1
 c3 c cccc | A2 F2 z4 | c3 c cccc | A2 F2 z FFF | d4 z FFF | c4 z AAA | G2 d2 c2 E2 | FFFF FFFF | %8
w: Vi- vail vi- no spu- meg-|gian- te.|nel bic- chie- re scin- til-|lan- te, ev- vi- vail|vin, ev- vi- vail|vin Ba- ro- lo|Chian- tio Gri- gno-|lin, ev- vi- vail vi- no ge- ne-|
 E2 C2 z4 | z FFF FFFF | E2 C2 z4 | z FFF A4 | z FFF B4 | z FFF AFDC | B,2 B,2 C2 C2 | F4 z FGA | %16
w: ro so,|a- sciut- toa- ma- bi- le gu-|sto- so|ev- vi- vail vin,|ev- vi- vail vin,|can- tim be- ben- do, vi- va|vi- va, vi- vail|vin. Bi- slac- ca|
 B3 G EGCE | F4 z FGA | B3 G EGCE | F2 F2 (f4 | f2) F2 (f4 | f2) A2 cAFE | D2 c2 A2 G2 | F4 z4 | %24
w: l'ac- qua, siac- qua l'in te-|stin, bel- l'a mi|rar- siin un la- ghet- toal|pin Can- tiam,|* go- diam,|* can- tia- mo vi- va|vi- va, vi- vail|vin.|
 G2 GA B3 G | F>G A2 z2 z F | G2 z G B2 z G | F>G A2 c2 F2 | z4 d2 F2 | z4 c2 F2 | z2 G2 A2 B2 | %31
w: Il vin fa l'uo- moaf|fa- bi- le. se|pur, ta- lor, in-|sta- bi- le vi- va|vi- va|vi- va|ev- vi- vail|
 A4 z4 | c3 c cccc | A2 F2 z4 | c3 c cccc | A2 F2 z FFF | d4 z FFF | c4 z AAA | G2 d2 c2 E2 | %39
w: vin.|Vi- vail vi- no spu- meg-|gian- te.|nel bic- chie- re scin- til-|lan- te, ev- vi- vail|vin, ev- vi- vail|vin Ba- ro- lo|Chian- tio Gri- gno-|
 FFFF FFFF | E2 C2 z4 | z FFF FFFF | E2 C2 z4 | z FFF A4 | z FFF B4 | z FFF AFDC | B,2 B,2 C2 C2 | %47
w: lin, ev- vi- vail vi- no ge- ne-|ro so,|a- sciut- toa- ma- bi- le gu-|sto- so|ev- vi- vail vin,|ev- vi- vail vin,|can- tim be- ben- do, vi- va|vi- va, vi- vail|
 F4 z FGA | B3 G EGCE | F4 z FGA | B3 G EGCE | F2 F2 (f4 | f2) F2 (f4 | f2) A2 cAFE | D2 c2 A2 G2 | %55
w: vin. Bi- slac- ca|l'ac- qua, siac- qua l'in te-|stin, bel- l'a mi|rar- siin un la- ghet- toal|pin Can- tiam,|* go- diam,|* can- tia- mo vi- va|vi- va, vi- vail|
 F4 z4 | G2 GA B3 G | F>G A2 z2 z F | G2 z G B2 z G | F>G A2 c2 F2 | z4 d2 F2 | z4 c2 F2 | %62
w: vin.|Il vin fa l'uo- moaf|fa- bi- le. se|pur, ta- lor, in-|sta- bi- le vi- va|vi- va|vi- va|
 z2 G2 A2 B2 | A4 z4 | c3 c cccc | A2 F2 z4 | c3 c cccc | A2 F2 z FFF | d4 z FFF | c4 z AAA | %70
w: ev- vi- vail|vin.|Vi- vail vi- no spu- meg-|gian- te.|nel bic- chie- re scin- til-|lan- te, ev- vi- vail|vin, ev- vi- vail|vin Ba- ro- lo|
 G2 d2 c2 E2 | F8 | z8 | z8 | z8 | z8 | z8 | z8 | z8 | z8 |] %80
w: Chian- tio Gri- gno-|lin,|||||||||
V:2
 z8 | z8 | z8 | z8 | z8 | z8 | z8 | z8 | c3 c cccc | A2 F2 z4 | c3 c cccc | A2 F2 z FFF | %12
w: ||||||||Vi- vail vi- no spu- meg-|gian- te.|nel bic- chie- re scin- til-|lan- te, ev- vi- vail|
 d4 z FFF | c4 z AAA | G2 d2 c2 E2 | FFFF FFFF | E2 C2 z4 | z FFF FFFF | E2 C2 z4 | z FFF A4 | %20
w: vin, ev- vi- vail|vin Ba- ro- lo|Chian- tio Gri- gno-|lin, ev- vi- vail vi- no ge- ne-|ro so,|a- sciut- toa- ma- bi- le gu-|sto- so|ev- vi- vail vin,|
 z FFF B4 | z FFF AFDC | B,2 B,2 C2 C2 | F4 z FGA | B3 G EGCE | F4 z FGA | B3 G EGCE | F2 F2 (f4 | %28
w: ev- vi- vail vin,|can- tim be- ben- do, vi- va|vi- va, vi- vail|vin. Bi- slac- ca|l'ac- qua, siac- qua l'in te-|stin, bel- l'a mi|rar- siin un la- ghet- toal|pin Can- tiam,|
 f2) F2 (f4 | f2) A2 cAFE | D2 c2 A2 G2 | F4 z4 | G2 GA B3 G | F>G A2 z2 z F | G2 z G B2 z G | %35
w: * go- diam,|* can- tia- mo vi- va|vi- va, vi- vail|vin.|Il vin fa l'uo- moaf|fa- bi- le. se|pur, ta- lor, in-|
 F>G A2 c2 F2 | z4 d2 F2 | z4 c2 F2 | z2 G2 A2 B2 | A4 z4 | c3 c cccc | A2 F2 z4 | c3 c cccc | %43
w: sta- bi- le vi- va|vi- va|vi- va|ev- vi- vail|vin.|Vi- vail vi- no spu- meg-|gian- te.|nel bic- chie- re scin- til-|
 A2 F2 z FFF | d4 z FFF | c4 z AAA | G2 d2 c2 E2 | FFFF FFFF | E2 C2 z4 | z FFF FFFF | E2 C2 z4 | %51
w: lan- te, ev- vi- vail|vin, ev- vi- vail|vin Ba- ro- lo|Chian- tio Gri- gno-|lin, ev- vi- vail vi- no ge- ne-|ro so,|a- sciut- toa- ma- bi- le gu-|sto- so|
 z FFF A4 | z FFF B4 | z FFF AFDC | B,2 B,2 C2 C2 | F4 z FGA | B3 G EGCE | F4 z FGA | B3 G EGCE | %59
w: ev- vi- vail vin,|ev- vi- vail vin,|can- tim be- ben- do, vi- va|vi- va, vi- vail|vin. Bi- slac- ca|l'ac- qua, siac- qua l'in te-|stin, bel- l'a mi|rar- siin un la- ghet- toal|
 F2 F2 (f4 | f2) F2 (f4 | f2) A2 cAFE | D2 c2 A2 G2 | F4 z4 | G2 GA B3 G | F>G A2 z2 z F | %66
w: pin Can- tiam,|* go- diam,|* can- tia- mo vi- va|vi- va, vi- vail|vin.|Il vin fa l'uo- moaf|fa- bi- le. se|
 G2 z G B2 z G | F>G A2 c2 F2 | z4 d2 F2 | z4 c2 F2 | z2 G2 A2 B2 | A8 | z8 | z8 | z8 | z8 | z8 | %77
w: pur, ta- lor, in-|sta- bi- le vi- va|vi- va|vi- va|ev- vi- vail|vin.||||||
 z8 | z8 | z8 |] %80
w: |||
V:3
 z8 | z8 | z8 | z8 | z8 | z8 | z8 | z8 | z8 | z8 | z8 | z8 | z8 | z8 | z8 | z8 | c3 c cccc | %17
w: ||||||||||||||||Vi- vail vi- no spu- meg-|
 A2 F2 z4 | c3 c cccc | A2 F2 z FFF | d4 z FFF | c4 z AAA | G2 d2 c2 E2 | FFFF FFFF | E2 C2 z4 | %25
w: gian- te.|nel bic- chie- re scin- til-|lan- te, ev- vi- vail|vin, ev- vi- vail|vin Ba- ro- lo|Chian- tio Gri- gno-|lin, ev- vi- vail vi- no ge- ne-|ro so,|
 z FFF FFFF | E2 C2 z4 | z FFF A4 | z FFF B4 | z FFF AFDC | B,2 B,2 C2 C2 | F4 z FGA | B3 G EGCE | %33
w: a- sciut- toa- ma- bi- le gu-|sto- so|ev- vi- vail vin,|ev- vi- vail vin,|can- tim be- ben- do, vi- va|vi- va, vi- vail|vin. Bi- slac- ca|l'ac- qua, siac- qua l'in te-|
 F4 z FGA | B3 G EGCE | F2 F2 (f4 | f2) F2 (f4 | f2) A2 cAFE | D2 B2 A2 G2 | F4 z4 | G2 GA B3 G | %41
w: stin, bel- l'a mi|rar- siin un la- ghet- toal|pin Can- tiam,|* go- diam,|* can- tia- mo vi- va|vi- va, vi- vail|vin.|Il vin fa l'uo- moaf|
 F>G A2 z2 z F | G2 z G B2 z G | F>G A2 c2 F2 | z4 d2 F2 | z4 c2 F2 | z2 G2 A2 B2 | A4 z4 | %48
w: fa- bi- le. se|pur, ta- lor, in-|sta- bi- le vi- va|vi- va|vi- va|ev- vi- vail|vin.|
 c3 c cccc | A2 F2 z4 | c3 c cccc | A2 F2 z FFF | d4 z FFF | c4 z AAA | G2 d2 c2 E2 | FFFF FFFF | %56
w: Vi- vail vi- no spu- meg-|gian- te.|nel bic- chie- re scin- til-|lan- te, ev- vi- vail|vin, ev- vi- vail|vin Ba- ro- lo|Chian- tio Gri- gno-|lin, ev- vi- vail vi- no ge- ne-|
 E2 C2 z4 | z FFF FFFF | E2 C2 z4 | z FFF A4 | z FFF B4 | z FFF AFDC | B,2 B,2 C2 C2 | F4 z FGA | %64
w: ro so,|a- sciut- toa- ma- bi- le gu-|sto- so|ev- vi- vail vin,|ev- vi- vail vin,|can- tim be- ben- do, vi- va|vi- va, vi- vail|vin. Bi- slac- ca|
 B3 G EGCE | F4 z FGA | B3 G EGCE | F2 F2 (f4 | f2) F2 (f4 | f2) A2 cAFE | D2 B2 A2 G2 | F8 | z8 | %73
w: l'ac- qua, siac- qua l'in te-|stin, bel- l'a mi|rar- siin un la- ghet- toal|pin Can- tiam,|* go- diam,|* can- tia- mo vi- va|vi- va, vi- vail|vin.||
 z8 | z8 | z8 | z8 | z8 | z8 | z8 |] %80
w: |||||||
V:4
 z8 | z8 | z8 | z8 | z8 | z8 | z8 | z8 | z8 | z8 | z8 | z8 | z8 | z8 | z8 | z8 | z8 | z8 | z8 | %19
w: |||||||||||||||||||
 z8 | z8 | z8 | z8 | z8 | C3 C CCCC | A,2 F,2 z4 | C3 C CCCC | A,2 F,2 z F,F,F, | D4 z F,F,F, | %29
w: |||||Vi- vail vi- no spu- meg-|gian- te.|nel bic- chie- re scin- til-|lan- te, ev- vi- vail|vin, ev- vi- vail|
 C4 z A,A,A, | G,2 D2 C2 E,2 | F,F,F,F, F,F,F,F, | E,2 C,2 z4 | z F,F,F, F,F,F,F, | E,2 C,2 z4 | %35
w: vin Ba- ro- lo|Chian- tio Gri- gno-|lin, ev- vi- vail vi- no ge- ne-|ro so,|a- sciut- toa- ma- bi- le gu-|sto- so|
 z F,F,F, A,4 | z F,F,F, B,4 | z F,F,F, A,F,D,C, | B,,2 B,,2 C,2 C,2 | F,8 | z8 | z8 | z8 | z8 | %44
w: ev- vi- vail vin,|ev- vi- vail vin,|can- tim be- ben- do, vi- va|vi- va, vi- vail|vin.|||||
 z8 | z8 | z8 | z8 | z8 | z8 | z8 | z8 | z8 | z8 | z8 | z8 | C3 C CCCC | A,2 F,2 z4 | C3 C CCCC | %59
w: ||||||||||||Vi- vail vi- no spu- meg-|gian- te.|nel bic- chie- re scin- til-|
 A,2 F,2 z F,F,F, | D4 z F,F,F, | C4 z A,A,A, | G,2 D2 C2 E,2 | F,F,F,F, F,F,F,F, | E,2 C,2 z4 | %65
w: lan- te, ev- vi- vail|vin, ev- vi- vail|vin Ba- ro- lo|Chian- tio Gri- gno-|lin, ev- vi- vail vi- no ge- ne-|ro so,|
 z F,F,F, F,F,F,F, | E,2 C,2 z4 | z F,F,F, A,4 | z F,F,F, B,4 | z F,F,F, A,F,D,C, | %70
w: a- sciut- toa- ma- bi- le gu-|sto- so|ev- vi- vail vin,|ev- vi- vail vin,|can- tim be- ben- do, vi- va|
 B,,2 B,,2 C,2 C,2 | F,8 | z8 | z8 | z8 | z8 | z8 | z8 | z8 | z8 |] %80
w: vi- va, vi- vail|vin.|||||||||

